svg/cellphone_marker.svg

<svg xmlns="http://www.w3.org/2000/svg" viewBox="0 0 24 24"><path d="M18.5 13c-1.9 0-3.5 1.61-3.5 3.5 0 2.61 3.5 6.5 3.5 6.5s3.5-3.89 3.5-6.5c0-1.89-1.6-3.5-3.5-3.5m0 4.81c-.7 0-1.2-.6-1.2-1.2 0-.7.6-1.2 1.2-1.2s1.2.59 1.2 1.2c.1.6-.5 1.2-1.2 1.2M15.91 23H7a2 2 0 0 1-2-2V3c0-1.11.89-2 2-2h10a2 2 0 0 1 2 2v8.03c-.16-.03-.33-.03-.5-.03-.5 0-1 .08-1.5.22V5H7v14h6.54c.6 1.5 1.58 2.97 2.37 4"/></svg>

<svg xmlns="http://www.w3.org/2000/svg" id="mdi-cellphone-marker" viewBox="0 0 24 24"><path d="M18.5 13C16.6 13 15 14.61 15 16.5C15 19.11 18.5 23 18.5 23S22 19.11 22 16.5C22 14.61 20.4 13 18.5 13M18.5 17.81C17.8 17.81 17.3 17.21 17.3 16.61C17.3 15.91 17.9 15.41 18.5 15.41S19.7 16 19.7 16.61C19.8 17.21 19.2 17.81 18.5 17.81M15.91 23H7C5.9 23 5 22.11 5 21V3C5 1.89 5.89 1 7 1H17C18.1 1 19 1.89 19 3V11.03C18.84 11 18.67 11 18.5 11C18 11 17.5 11.08 17 11.22V5H7V19H13.54C14.14 20.5 15.12 21.97 15.91 23Z" /></svg>
